src/assets/icons/sax/IconFilterRemove.svg

<svg width="20" height="20" viewBox="0 0 24 24" fill="none" xmlns="http://www.w3.org/2000/svg">
<path d="M13.41 20.79L12 21.7C10.69 22.51 8.87 21.6 8.87 19.98V14.63C8.87 13.92 8.47 13.01 8.06 12.51L4.22 8.46997C3.71 7.95997 3.31 7.06001 3.31 6.45001V4.13C3.31 2.92 4.22 2.01001 5.33 2.01001H18.67C19.78 2.01001 20.69 2.92003 20.69 4.03003V6.25C20.69 7.06 20.18 8.07001 19.68 8.57001" stroke="currentColor" stroke-width="1.5" stroke-miterlimit="10" stroke-linecap="round" stroke-linejoin="round"/>
<path d="M21.63 14.75C21.63 15.64 21.38 16.48 20.94 17.2C20.12 18.58 18.61 19.5 16.88 19.5C15.15 19.5 13.64 18.57 12.82 17.2C12.38 16.49 12.13 15.64 12.13 14.75C12.13 12.13 14.26 10 16.88 10C19.5 10 21.63 12.13 21.63 14.75Z" stroke="currentColor" stroke-width="1.5" stroke-miterlimit="10" stroke-linecap="round" stroke-linejoin="round"/>
<path d="M18.15 15.99L15.64 13.48" stroke="currentColor" stroke-width="1.5" stroke-miterlimit="10" stroke-linecap="round" stroke-linejoin="round"/>
<path d="M18.13 13.51L15.62 16.02" stroke="currentColor" stroke-width="1.5" stroke-miterlimit="10" stroke-linecap="round" stroke-linejoin="round"/>
<path d="M20.69 4.02002V6.23999C20.69 7.04999 20.18 8.06001 19.68 8.57001L17.92 10.12C17.59 10.04 17.24 10 16.88 10C14.26 10 12.13 12.13 12.13 14.75C12.13 15.64 12.38 16.48 12.82 17.2C13.19 17.82 13.7 18.35 14.32 18.73V19.07C14.32 19.68 13.92 20.49 13.41 20.79L12 21.7C10.69 22.51 8.87 21.6 8.87 19.98V14.63C8.87 13.92 8.46 13.01 8.06 12.51L4.22 8.46997C3.72 7.95997 3.31 7.05001 3.31 6.45001V4.12C3.31 2.91 4.22 2 5.33 2H18.67C19.78 2 20.69 2.91002 20.69 4.02002Z" stroke="currentColor" stroke-width="1.5" stroke-miterlimit="10" stroke-linecap="round" stroke-linejoin="round"/>
</svg>

<svg xmlns="http://www.w3.org/2000/svg" width="20" height="20" fill="none" viewBox="0 0 24 24">
  <path stroke="currentcolor" stroke-linecap="round" stroke-linejoin="round" stroke-miterlimit="10" stroke-width="1.5" d="M13.41 20.79 12 21.7c-1.31.81-3.13-.1-3.13-1.72v-5.35c0-.71-.4-1.62-.81-2.12L4.22 8.47a3.3 3.3 0 0 1-.91-2.02V4.13c0-1.21.91-2.12 2.02-2.12h13.34c1.11 0 2.02.91 2.02 2.02v2.22c0 .81-.51 1.82-1.01 2.32"/>
  <path stroke="currentcolor" stroke-linecap="round" stroke-linejoin="round" stroke-miterlimit="10" stroke-width="1.5" d="M21.63 14.75q-.01 1.35-.69 2.45a4.73 4.73 0 0 1-8.81-2.45 4.75 4.75 0 0 1 9.5 0m-3.48 1.24-2.51-2.51m2.49.03-2.51 2.51"/>
  <path stroke="currentcolor" stroke-linecap="round" stroke-linejoin="round" stroke-miterlimit="10" stroke-width="1.5" d="M20.69 4.02v2.22c0 .81-.51 1.82-1.01 2.33l-1.76 1.55a4.75 4.75 0 0 0-3.6 8.61v.34c0 .61-.4 1.42-.91 1.72L12 21.7c-1.31.81-3.13-.1-3.13-1.72v-5.35c0-.71-.41-1.62-.81-2.12L4.22 8.47a3.4 3.4 0 0 1-.91-2.02V4.12C3.31 2.91 4.22 2 5.33 2h13.34c1.11 0 2.02.91 2.02 2.02"/>
</svg>
